!!!OTL: ES WOLLT EIN MAEDCHEN ZUM TANZE GEHN
!!!ARE: Europa, Mitteleuropa, Deutschland, Westerwald; Limburg
!!!SCT: E0174E
!!!YEM: Copyright 1995, estate of Helmut Schaffrath.
**kern
*ICvox
*Ivox
*M3/4
*k[f#]
*G:
{8d
=1
8e
8d
4b
8a
8g
=2
8.b
16a
4a
8r}
{8g
=3
8g
8b
4.dd
8b
=4
4b
4a
8r}
{16a
16b
=5
8cc
8ee
4ee
8dd
8cc
=6
8b
8dd
4.g}
{8b
=7
8a
8ee
4.dd
8cc
=8
8cc
8dd
4b
8r}
{16a
16b
=9
8cc
8ee
4ee
8dd
8cc
=10
8b
8dd
4.g}
{8b
=11
8a
8ee
4.dd
8cc
=12
8cc
8dd
4b
8r}
==
!!!AGN: erzaehlendes Volks - Lied, Sage, Pflanzen - Maerchen, Moral - Lied
!!!ONB: ESAC (Essen Associative Code) Database: ERK1
!!!AMT: simple triple
!!!AIN: vox
!!!EED: Helmut Schaffrath
!!!EEV: 1.0
*-
